material/.icons/material/spade.svg

<svg xmlns="http://www.w3.org/2000/svg" viewBox="0 0 24 24"><path d="M15.71 1.22l-2.83 2.83c-.78.78-.78 2.04 0 2.82l1.42 1.42-4.24 4.24-2.48-2.47-6.36 6.36 6.36 6.36 6.36-6.36-2.47-2.48 4.24-4.24 1.42 1.42c.78.78 2.04.78 2.82 0l2.83-2.83-7.07-7.07m0 2.83l4.24 4.24-1.41 1.41-4.24-4.24 1.41-1.41z"/></svg>

<?xml version="1.0" encoding="UTF-8"?><!DOCTYPE svg PUBLIC "-//W3C//DTD SVG 1.1//EN" "http://www.w3.org/Graphics/SVG/1.1/DTD/svg11.dtd"><svg xmlns="http://www.w3.org/2000/svg" xmlns:xlink="http://www.w3.org/1999/xlink" version="1.1" id="mdi-spade" width="24" height="24" viewBox="0 0 24 24"><path d="M15.71,1.22L12.88,4.05C12.1,4.83 12.1,6.09 12.88,6.87L14.3,8.29L10.06,12.53L7.58,10.06L1.22,16.42L7.58,22.78L13.94,16.42L11.47,13.94L15.71,9.7L17.13,11.12C17.91,11.9 19.17,11.9 19.95,11.12L22.78,8.29L15.71,1.22M15.71,4.05L19.95,8.29L18.54,9.7L14.3,5.46L15.71,4.05Z" /></svg>
